icons/columns.svg

<svg width="24" height="24" viewBox="0 0 24 24" fill="none" xmlns="http://www.w3.org/2000/svg">
<path fill-rule="evenodd" clip-rule="evenodd" d="M2 5C2 4.44772 2.44772 4 3 4H9.1875C9.73978 4 10.1875 4.44772 10.1875 5C10.1875 5.55228 9.73978 6 9.1875 6H3C2.44772 6 2 5.55228 2 5ZM13.8125 5C13.8125 4.44772 14.2602 4 14.8125 4H21C21.5523 4 22 4.44772 22 5C22 5.55228 21.5523 6 21 6H14.8125C14.2602 6 13.8125 5.55228 13.8125 5ZM2 9.66667C2 9.11438 2.44772 8.66667 3 8.66667H9.1875C9.73978 8.66667 10.1875 9.11438 10.1875 9.66667C10.1875 10.219 9.73978 10.6667 9.1875 10.6667H3C2.44772 10.6667 2 10.219 2 9.66667ZM13.8125 9.66667C13.8125 9.11438 14.2602 8.66667 14.8125 8.66667H21C21.5523 8.66667 22 9.11438 22 9.66667C22 10.219 21.5523 10.6667 21 10.6667H14.8125C14.2602 10.6667 13.8125 10.219 13.8125 9.66667ZM2 14.3333C2 13.781 2.44772 13.3333 3 13.3333H9.1875C9.73978 13.3333 10.1875 13.781 10.1875 14.3333C10.1875 14.8856 9.73978 15.3333 9.1875 15.3333H3C2.44772 15.3333 2 14.8856 2 14.3333ZM13.8125 14.3333C13.8125 13.781 14.2602 13.3333 14.8125 13.3333H21C21.5523 13.3333 22 13.781 22 14.3333C22 14.8856 21.5523 15.3333 21 15.3333H14.8125C14.2602 15.3333 13.8125 14.8856 13.8125 14.3333ZM2 19C2 18.4477 2.44772 18 3 18H9.1875C9.73978 18 10.1875 18.4477 10.1875 19C10.1875 19.5523 9.73978 20 9.1875 20H3C2.44772 20 2 19.5523 2 19ZM13.8125 19C13.8125 18.4477 14.2602 18 14.8125 18H21C21.5523 18 22 18.4477 22 19C22 19.5523 21.5523 20 21 20H14.8125C14.2602 20 13.8125 19.5523 13.8125 19Z" fill="black"/>
</svg>

<svg
  width="24"
  height="24"
  viewBox="0 0 24 24"
  xmlns="http://www.w3.org/2000/svg"
>
  <path
    fill-rule="evenodd"
    clip-rule="evenodd"
    d="M2 5a1 1 0 0 1 1-1h6.188a1 1 0 0 1 0 2H3a1 1 0 0 1-1-1zm11.813 0a1 1 0 0 1 1-1H21a1 1 0 1 1 0 2h-6.188a1 1 0 0 1-1-1zM2 9.667a1 1 0 0 1 1-1h6.188a1 1 0 1 1 0 2H3a1 1 0 0 1-1-1zm11.813 0a1 1 0 0 1 1-1H21a1 1 0 1 1 0 2h-6.188a1 1 0 0 1-1-1zM2 14.333a1 1 0 0 1 1-1h6.188a1 1 0 1 1 0 2H3a1 1 0 0 1-1-1zm11.813 0a1 1 0 0 1 1-1H21a1 1 0 1 1 0 2h-6.188a1 1 0 0 1-1-1zM2 19a1 1 0 0 1 1-1h6.188a1 1 0 1 1 0 2H3a1 1 0 0 1-1-1zm11.813 0a1 1 0 0 1 1-1H21a1 1 0 1 1 0 2h-6.188a1 1 0 0 1-1-1z"
  />
</svg>
